X:87
T:Strathnairn, The
R:polka
C:Stephen Cooney (1953-)
D:Begley & Cooney: Meitheal
Z:id:hn-polka-87
M:2/4
L:1/8
K:Bm
B/c/B/A/ Fd|Bc BA|FE/D/ AF|E2 EF/A/|B>c BA|Fd cd|FA FD|1 B,2 B,B:|2 B,2 B,e||
ef/e/ dB|Ad fd|gf/e/ de/f/|e2 e2|ef/e/ dB|Ad cd|FA FD|B,2 B,e|
ef/e/ dB|Ad fa|b3 c'|ba f/e/d|ef/e/ dB|Ad cd|FA FD|B,2 B,B||
<end>
<start>
